;FLAVOR:Marlin
;TIME:10978
;Filament used: 10.7759m
;Layer height: 0.2
;MINX:70.7
;MINY:72.355
;MINZ:0.2
;MAXX:149.3
;MAXY:149.368
;MAXZ:124.6
;Generated with Cura_SteamEngine 4.4.0
M140 S60
M105
M190 S60
M104 S205
M105
M109 S205
M82 ;absolute extrusion mode
M201 X500.00 Y500.00 Z100.00 E5000.00 ;Setup machine max acceleration
M203 X500.00 Y500.00 Z10.00 E50.00 ;Setup machine max feedrate
M204 P500.00 R1000.00 T500.00 ;Setup Print/Retract/Travel acceleration
M205 X8.00 Y8.00 Z0.40 E5.00 ;Setup Jerk
M220 S100 ;Reset Feedrate
M221 S100 ;Reset Flowrate

G28 ;Home

G92 E0 ;Reset Extruder
G1 Z2.0 F3000 ;Move Z Axis up
G1 X10.1 Y20 Z0.28 F5000.0 ;Move to start position
G1 X10.1 Y200.0 Z0.28 F1500.0 E15 ;Draw the first line
G1 X10.4 Y200.0 Z0.28 F5000.0 ;Move to side a little
G1 X10.4 Y20 Z0.28 F1500.0 E30 ;Draw the second line
G92 E0 ;Reset Extruder
G1 Z2.0 F3000 ;Move Z Axis up

G92 E0
G92 E0
G1 F1500 E-6
;LAYER_COUNT:623
;LAYER:0
M107
M204 S500
M205 X20 Y20
G0 F7500 X73.102 Y74.832 Z0.2
;TYPE:SKIRT
G1 F1500 E0
G1 X73.688 Y74.302 E0.02628
G1 X74.324 Y73.835 E0.05252
G1 X75.004 Y73.434 E0.07878
G1 X75.722 Y73.104 E0.10506
G1 X76.469 Y72.849 E0.13132
G1 X77.238 Y72.67 E0.15758
G1 X78.022 Y72.57 E0.18386
G1 X78.607 Y72.547 E0.20334
G1 X81.017 Y72.544 E0.28349
G1 X81.034 Y72.544 E0.28406
G1 X90.36 Y72.552 E0.59424
G1 X90.418 Y72.536 E0.59624
G1 X91.197 Y72.406 E0.62251
G1 X92.09 Y72.355 E0.65226
G1 X107.56 Y72.357 E1.1668
G1 X108.349 Y72.397 E1.19307
G1 X109.129 Y72.517 E1.21932
G1 X109.894 Y72.715 E1.2456
G1 X109.983 Y72.748 E1.24876
G1 X128.762 Y72.747 E1.87335
G1 X128.888 Y72.714 E1.87768
G1 X129.669 Y72.593 E1.90397
G1 X130.468 Y72.552 E1.93058
G1 X141.379 Y72.546 E2.29348
G1 X142.167 Y72.586 E2.31972
G1 X142.948 Y72.705 E2.346
G1 X143.713 Y72.902 E2.37227
G1 X144.453 Y73.176 E2.39852
G1 X145.163 Y73.523 E2.4248
G1 X145.833 Y73.94 E2.45105
G1 X146.458 Y74.423 E2.47732
G1 X146.898 Y74.831 E2.49728
G1 X147.015 Y74.948 E2.50278
G1 X147.545 Y75.534 E2.52906
G1 X148.012 Y76.17 E2.55531
G1 X148.413 Y76.85 E2.58156
G1 X148.743 Y77.568 E2.60785
G1 X148.998 Y78.315 E2.6341
G1 X149.177 Y79.084 E2.66036
G1 X149.277 Y79.868 E2.68665
G1 X149.3 Y80.463 E2.70645
G1 X149.3 Y84.602 E2.84411
G1 X149.279 Y85.025 E2.8582
G1 X149.3 Y85.58 E2.87667
G1 X149.3 Y141.44 E4.73458
G1 X149.26 Y142.229 E4.76086
G1 X149.141 Y143.009 E4.7871
G1 X148.943 Y143.774 E4.81339
G1 X148.669 Y144.514 E4.83963
G1 X148.321 Y145.223 E4.8659
G1 X147.903 Y145.894 E4.89219
G1 X147.42 Y146.518 E4.91844
G1 X147.015 Y146.955 E4.93826
G1 X146.898 Y147.072 E4.94376
G1 X146.312 Y147.602 E4.97004
G1 X145.676 Y148.069 E4.99628
G1 X144.996 Y148.47 E5.02254
G1 X144.278 Y148.8 E5.04882
G1 X143.531 Y149.055 E5.07507
G1 X142.762 Y149.234 E5.10134
G1 X141.978 Y149.334 E5.12762
G1 X141.399 Y149.357 E5.1469
G1 X137.004 Y149.366 E5.29307
G1 X136.988 Y149.366 E5.29361
G1 X82.134 Y149.368 E7.11806
G1 X82.112 Y149.368 E7.11879
G1 X78.595 Y149.358 E7.23577
G1 X77.806 Y149.316 E7.26205
G1 X77.026 Y149.194 E7.2883
G1 X76.262 Y148.994 E7.31457
G1 X75.522 Y148.718 E7.34084
G1 X74.814 Y148.368 E7.36711
G1 X74.145 Y147.949 E7.39336
G1 X73.522 Y147.464 E7.41962
G1 X73.102 Y147.073 E7.43871
G1 X72.985 Y146.956 E7.44421
G1 X72.455 Y146.37 E7.47049
G1 X71.988 Y145.734 E7.49673
G1 X71.587 Y145.054 E7.52299
G1 X71.257 Y144.336 E7.54927
G1 X71.002 Y143.589 E7.57553
G1 X70.823 Y142.82 E7.60179
G1 X70.723 Y142.036 E7.62807
G1 X70.7 Y141.441 E7.64788
G1 X70.7 Y85.58 E9.50582
G1 X70.728 Y85.033 E9.52404
G1 X70.7 Y84.602 E9.53841
G1 X70.7 Y80.464 E9.67604
G1 X70.74 Y79.675 E9.70231
G1 X70.859 Y78.895 E9.72856
G1 X71.057 Y78.13 E9.75484
G1 X71.331 Y77.39 E9.78108
G1 X71.679 Y76.681 E9.80735
G1 X72.097 Y76.01 E9.83365
G1 X72.556 Y75.417 E9.85859
G0 F1350 X72.58 Y75.386
G0 X72.985 Y74.949
G0 X73.102 Y74.832
G0 F7500 X73.384 Y75.114
G1 F1500 X73.956 Y74.6 E9.88417
G1 X74.578 Y74.147 E9.90976
G1 X75.243 Y73.761 E9.93533
G1 X75.945 Y73.446 E9.96092
G1 X76.676 Y73.206 E9.98651
G1 X77.427 Y73.043 E10.01207
G1 X78.192 Y72.959 E10.03767
G1 X78.608 Y72.947 E10.05151
G1 X81.018 Y72.944 E10.13167
G1 X81.033 Y72.944 E10.13217
G1 X90.42 Y72.952 E10.44438
G1 X90.562 Y72.914 E10.44927
G1 X91.322 Y72.795 E10.47486
G1 X92.09 Y72.755 E10.50043
G1 X107.56 Y72.757 E11.01497
G1 X108.328 Y72.797 E11.04055
G1 X109.088 Y72.917 E11.06614
G1 X109.831 Y73.114 E11.0917
G1 X109.92 Y73.148 E11.09487
G1 X128.819 Y73.147 E11.72346
G1 X129.028 Y73.094 E11.73063
G1 X129.789 Y72.984 E11.7562
G1 X130.468 Y72.952 E11.77881
G1 X141.379 Y72.946 E12.14171
G1 X142.147 Y72.986 E12.16729
G1 X142.907 Y73.105 E12.19288
G1 X143.65 Y73.302 E12.21844
G1 X144.369 Y73.575 E12.24402
G1 X145.056 Y73.922 E12.26962
G1 X145.703 Y74.338 E12.2952
G1 X146.303 Y74.819 E12.32078
G1 X146.616 Y75.113 E12.33506
G1 X146.733 Y75.23 E12.34057
G1 X147.247 Y75.802 E12.36614
G1 X147.7 Y76.424 E12.39174
G1 X148.086 Y77.089 E12.41731
G1 X148.401 Y77.791 E12.4429
G1 X148.641 Y78.522 E12.46849
G1 X148.804 Y79.273 E12.49405
G1 X148.888 Y80.038 E12.51965
G1 X148.9 Y80.463 E12.53379
G1 X148.9 Y84.602 E12.67146
G1 X148.877 Y85.051 E12.68641
G1 X148.888 Y85.155 E12.68989
G1 X148.9 Y85.58 E12.70403
G1 X148.9 Y141.44 E14.56194
G1 X148.86 Y142.208 E14.58752
G1 X148.741 Y142.968 E14.6131
G1 X148.543 Y143.711 E14.63868
G1 X148.269 Y144.43 E14.66427
G1 X147.922 Y145.116 E14.68984
G1 X147.506 Y145.763 E14.71542
G1 X147.025 Y146.363 E14.741
G1 X146.733 Y146.673 E14.75516
G1 X146.616 Y146.79 E14.76067
G1 X146.044 Y147.304 E14.78624
G1 X145.422 Y147.757 E14.81184
G1 X144.757 Y148.143 E14.83741
G1 X144.055 Y148.458 E14.863
G1 X143.324 Y148.698 E14.88859
G1 X142.573 Y148.861 E14.91415
G1 X141.808 Y148.945 E14.93975
G1 X141.398 Y148.957 E14.95339
G1 X137.003 Y148.966 E15.09957
G1 X136.988 Y148.966 E15.10007
G1 X82.134 Y148.968 E16.92452
G1 X82.113 Y148.968 E16.92522
G1 X78.596 Y148.958 E17.0422
G1 X77.828 Y148.916 E17.06778
G1 X77.068 Y148.794 E17.09338
G1 X76.326 Y148.594 E17.11894
G1 X75.608 Y148.319 E17.14451
G1 X74.922 Y147.97 E17.17011
G1 X74.277 Y147.551 E17.19569
G1 X73.678 Y147.069 E17.22127
G1 X73.384 Y146.791 E17.23472
G1 X73.267 Y146.674 E17.24023
G1 X72.753 Y146.102 E17.2658
G1 X72.3 Y145.48 E17.2914
G1 X71.914 Y144.815 E17.31697
G1 X71.599 Y144.113 E17.34256
G1 X71.359 Y143.382 E17.36815
G1 X71.196 Y142.631 E17.39371
G1 X71.112 Y141.866 E17.41931
G1 X71.1 Y141.441 E17.43345
G1 X71.1 Y85.58 E19.29139
G1 X71.122 Y85.152 E19.30565
G1 X71.117 Y85.108 E19.30712
G1 X71.1 Y84.602 E19.32396
G1 X71.1 Y80.464 E19.46159
G1 X71.14 Y79.696 E19.48717
G1 X71.259 Y78.936 E19.51276
G1 X71.457 Y78.193 E19.53833
G1 X71.731 Y77.474 E19.56392
G1 X72.078 Y76.788 E19.58949
G1 X72.494 Y76.141 E19.61507
G1 X72.844 Y75.704 E19.6337
G0 F1350 X72.975 Y75.541
G0 X73.267 Y75.231
G0 X73.384 Y75.114
G0 F7500 X73.667 Y75.397
G1 F1500 X74.224 Y74.897 E19.65859
G1 X74.83 Y74.46 E19.68344
G1 X75.48 Y74.089 E19.70833
G1 X76.166 Y73.79 E19.73322
G1 X76.88 Y73.566 E19.75811
G1 X77.613 Y73.419 E19.78298
G1 X78.608 Y73.347 E19.81616
G1 X81.018 Y73.344 E19.89631
G1 X81.033 Y73.344 E19.89681
G1 X90.477 Y73.352 E20.21092
G1 X90.705 Y73.293 E20.21876
G1 X91.445 Y73.185 E20.24363
G1 X92.09 Y73.155 E20.26511
G1 X107.56 Y73.157 E20.77964
G1 X108.307 Y73.197 E20.80452
G1 X109.045 Y73.317 E20.82939
G1 X109.767 Y73.514 E20.85428
G1 X109.853 Y73.548 E20.85736
G1 X128.873 Y73.547 E21.48996
G1 X129.167 Y73.475 E21.50003
G1 X129.908 Y73.375 E21.5249
G1 X130.468 Y73.352 E21.54354
G1 X141.379 Y73.346 E21.90644
G1 X142.126 Y73.386 E21.93132
G1 X142.865 Y73.505 E21.95622
G1 X143.586 Y73.702 E21.98108
G1 X144.283 Y73.975 E22.00598
G1 X144.946 Y74.321 E22.03085
G1 X145.569 Y74.735 E22.05573
G1 X146.333 Y75.396 E22.08933
G1 X146.45 Y75.513 E22.09483
G1 X146.95 Y76.07 E22.11973
G1 X147.387 Y76.676 E22.14458
G1 X147.758 Y77.326 E22.16947
G1 X148.057 Y78.012 E22.19436
G1 X148.281 Y78.726 E22.21925
G1 X148.428 Y79.459 E22.24412
G1 X148.5 Y80.463 E22.27759
G1 X148.5 Y84.602 E22.41526
G1 X148.47 Y85.162 E22.43391
G1 X148.5 Y85.58 E22.44785
G1 X148.5 Y141.44 E24.30576
G1 X148.46 Y142.187 E24.33064
G1 X148.341 Y142.925 E24.3555
G1 X148.143 Y143.647 E24.3804
G1 X147.87 Y144.343 E24.40527
G1 X147.523 Y145.006 E24.43016
G1 X147.108 Y145.629 E24.45506
G1 X146.45 Y146.39 E24.48852
G1 X146.333 Y146.507 E24.49402
G1 X145.776 Y147.007 E24.51892
G1 X145.17 Y147.444 E24.54377
G1 X144.52 Y147.815 E24.56866
G1 X143.834 Y148.114 E24.59355
G1 X143.12 Y148.338 E24.61844
G1 X142.387 Y148.485 E24.6433
G1 X141.397 Y148.557 E24.67632
G1 X137.002 Y148.566 E24.8225
G1 X136.988 Y148.566 E24.82296
G1 X82.134 Y148.568 E26.64741
G1 X82.114 Y148.568 E26.64808
G1 X78.597 Y148.558 E26.76505
G1 X77.85 Y148.516 E26.78994
G1 X77.112 Y148.394 E26.81482
G1 X76.391 Y148.195 E26.83969
G1 X75.696 Y147.919 E26.86457
G1 X75.033 Y147.571 E26.88947
G1 X74.412 Y147.154 E26.91435
G1 X73.667 Y146.508 E26.94715
G1 X73.55 Y146.391 E26.95265
G1 X73.05 Y145.834 E26.97755
G1 X72.613 Y145.228 E27.0024
G1 X72.242 Y144.578 E27.02729
G1 X71.943 Y143.892 E27.05218
G1 X71.719 Y143.178 E27.07707
G1 X71.572 Y142.445 E27.10193
G1 X71.5 Y141.441 E27.13541
G1 X71.5 Y85.58 E28.99336
G1 X71.527 Y85.082 E29.00994
G1 X71.5 Y84.602 E29.02593
G1 X71.5 Y80.464 E29.16356
G1 X71.54 Y79.717 E29.18844
G1 X71.659 Y78.979 E29.21331
G1 X71.857 Y78.257 E29.23821
G1 X72.13 Y77.561 E29.26307
G1 X72.477 Y76.898 E29.28796
G1 X72.892 Y76.275 E29.31286
G1 X73.135 Y75.994 E29.32522
G0 F1350 X73.55 Y75.514
G0 X73.667 Y75.397
G0 F7500 X73.95 Y75.68
G1 F1500 X74.491 Y75.196 E29.34936
G1 X75.082 Y74.773 E29.37353
G1 X75.716 Y74.419 E29.39768
G1 X76.385 Y74.136 E29.42184
G1 X77.081 Y73.928 E29.44601
G1 X77.796 Y73.798 E29.47018
G1 X78.609 Y73.747 E29.49727
G1 X81.019 Y73.744 E29.57743
G1 X81.033 Y73.744 E29.57789
G1 X90.53 Y73.752 E29.89376
G1 X90.846 Y73.673 E29.9046
G1 X91.566 Y73.576 E29.92876
G1 X92.09 Y73.555 E29.9462
G1 X107.56 Y73.557 E30.46074
G1 X108.285 Y73.597 E30.48489
G1 X109.002 Y73.717 E30.50907
G1 X109.701 Y73.914 E30.53322
G1 X109.785 Y73.948 E30.53624
G1 X128.921 Y73.947 E31.1727
G1 X129.304 Y73.856 E31.1858
G1 X130.024 Y73.767 E31.20992
G1 X130.468 Y73.752 E31.2247
G1 X141.379 Y73.746 E31.5876
G1 X142.105 Y73.786 E31.61179
G1 X142.821 Y73.905 E31.63593
G1 X143.52 Y74.102 E31.66008
G1 X144.194 Y74.374 E31.68425
G1 X144.833 Y74.719 E31.70841
G1 X145.43 Y75.133 E31.73257
G1 X146.05 Y75.679 E31.76005
G1 X146.167 Y75.796 E31.76555
G1 X146.651 Y76.337 E31.7897
G1 X147.074 Y76.928 E31.81387
G1 X147.428 Y77.562 E31.83802
G1 X147.711 Y78.231 E31.86218
G1 X147.919 Y78.927 E31.88634
G1 X148.049 Y79.642 E31.91051
G1 X148.1 Y80.463 E31.93787
G1 X148.1 Y84.602 E32.07553
G1 X148.071 Y85.12 E32.09279
G1 X148.1 Y85.58 E32.10812
G1 X148.1 Y141.44 E33.96603
G1 X148.06 Y142.165 E33.99018
G1 X147.941 Y142.882 E34.01436
G1 X147.743 Y143.581 E34.03852
G1 X147.47 Y144.254 E34.06267
G1 X147.125 Y144.893 E34.08683
G1 X146.711 Y145.49 E34.11099
G1 X146.167 Y146.107 E34.13835
G1 X146.05 Y146.224 E34.14385
G1 X145.509 Y146.708 E34.168
G1 X144.918 Y147.131 E34.19217
G1 X144.284 Y147.485 E34.21632
G1 X143.615 Y147.768 E34.24048
G1 X142.919 Y147.976 E34.26464
G1 X142.204 Y148.106 E34.28881
G1 X141.397 Y148.157 E34.31571
G1 X137.002 Y148.166 E34.46189
G1 X136.988 Y148.166 E34.46235
G1 X82.134 Y148.168 E36.2868
G1 X82.115 Y148.168 E36.28744
G1 X78.598 Y148.158 E36.40441
G1 X77.873 Y148.116 E36.42857
G1 X77.157 Y147.994 E36.45272
G1 X76.459 Y147.795 E36.47686
G1 X75.786 Y147.52 E36.50104
G1 X75.148 Y147.173 E36.5252
G1 X74.552 Y146.758 E36.54935
G1 X73.95 Y146.225 E36.5761
G1 X73.833 Y146.108 E36.5816
G1 X73.349 Y145.567 E36.60574
G1 X72.926 Y144.976 E36.62992
G1 X72.572 Y144.342 E36.65407
G1 X72.289 Y143.673 E36.67823
G1 X72.081 Y142.977 E36.70239
G1 X71.951 Y142.262 E36.72656
G1 X71.9 Y141.441 E36.75392
G1 X71.9 Y85.58 E38.61186
G1 X71.931 Y85.01 E38.63085
G1 X71.9 Y84.602 E38.64446
G1 X71.9 Y80.464 E38.78209
G1 X71.94 Y79.739 E38.80624
G1 X72.059 Y79.022 E38.83041
G1 X72.257 Y78.323 E38.85458
G1 X72.53 Y77.65 E38.87873
G1 X72.875 Y77.011 E38.90289
G1 X73.289 Y76.414 E38.92705
G1 X73.413 Y76.273 E38.9333
G0 F1350 X73.833 Y75.797
G0 X73.95 Y75.68
G0 F7500 X74.233 Y75.963
G1 F1500 X74.758 Y75.494 E38.95671
G1 X75.333 Y75.088 E38.98012
G1 X75.951 Y74.75 E39.00355
G1 X76.602 Y74.483 E39.02695
G1 X77.28 Y74.293 E39.05037
G1 X77.975 Y74.18 E39.07379
G1 X78.609 Y74.147 E39.09491
G1 X81.019 Y74.144 E39.17506
G1 X81.032 Y74.144 E39.1755
G1 X90.576 Y74.152 E39.49293
G1 X90.985 Y74.054 E39.50692
G1 X91.684 Y73.968 E39.53034
G1 X92.09 Y73.955 E39.54385
G1 X107.56 Y73.957 E40.05839
G1 X108.263 Y73.997 E40.08181
G1 X108.956 Y74.117 E40.1052
G1 X109.632 Y74.314 E40.12862
G1 X109.713 Y74.348 E40.13154
G1 X128.963 Y74.347 E40.7718
G1 X129.438 Y74.239 E40.788
G1 X130.469 Y74.152 E40.82241
G1 X141.38 Y74.146 E41.18531
G1 X142.082 Y74.186 E41.2087
G1 X142.776 Y74.305 E41.23212
G1 X143.452 Y74.501 E41.25553
G1 X144.101 Y74.774 E41.27895
G1 X144.716 Y75.118 E41.30239
G1 X145.287 Y75.529 E41.32578
G1 X145.767 Y75.962 E41.34729
G1 X145.884 Y76.079 E41.35279
G1 X146.353 Y76.604 E41.3762
G1 X146.759 Y77.179 E41.39961
G1 X147.097 Y77.797 E41.42304
G1 X147.364 Y78.448 E41.44645
G1 X147.554 Y79.126 E41.46986
G1 X147.667 Y79.821 E41.49328
G1 X147.7 Y80.463 E41.51467
G1 X147.7 Y84.602 E41.65233
G1 X147.674 Y85.066 E41.66779
G1 X147.7 Y85.58 E41.6849
G1 X147.7 Y141.44 E43.54281
G1 X147.66 Y142.143 E43.56623
G1 X147.541 Y142.837 E43.58965
G1 X147.343 Y143.512 E43.61305
G1 X147.071 Y144.161 E43.63646
G1 X146.726 Y144.775 E43.65988
G1 X146.315 Y145.346 E43.68328
G1 X145.884 Y145.824 E43.70469
G1 X145.767 Y145.941 E43.71019
G1 X145.242 Y146.41 E43.7336
G1 X144.667 Y146.816 E43.75702
G1 X144.049 Y147.154 E43.78044
G1 X143.398 Y147.421 E43.80385
G1 X142.72 Y147.611 E43.82727
G1 X142.025 Y147.724 E43.85068
G1 X141.396 Y147.757 E43.87163
G1 X137.001 Y147.766 E44.01781
G1 X136.988 Y147.766 E44.01825
G1 X82.134 Y147.768 E45.8427
G1 X82.116 Y147.768 E45.8433
G1 X78.599 Y147.758 E45.96027
G1 X77.897 Y147.716 E45.98366
G1 X77.203 Y147.595 E46.00709
G1 X76.528 Y147.395 E46.03051
G1 X75.88 Y147.121 E46.05391
G1 X75.267 Y146.775 E46.07732
G1 X74.697 Y146.361 E46.10075
G1 X74.233 Y145.942 E46.12155
G1 X74.116 Y145.825 E46.12705
G1 X73.647 Y145.3 E46.15046
G1 X73.241 Y144.725 E46.17387
G1 X72.903 Y144.107 E46.1973
G1 X72.636 Y143.456 E46.22071
G1 X72.446 Y142.778 E46.24412
G1 X72.333 Y142.083 E46.26754
G1 X72.3 Y141.441 E46.28893
G1 X72.3 Y85.58 E48.14687
G1 X72.325 Y85.142 E48.16146
G1 X72.322 Y85.122 E48.16213
G1 X72.3 Y84.602 E48.17944
G1 X72.3 Y80.464 E48.31708
G1 X72.34 Y79.761 E48.34049
G1 X72.459 Y79.067 E48.36391
G1 X72.657 Y78.392 E48.38731
G1 X72.929 Y77.743 E48.41072
G1 X73.274 Y77.129 E48.43414
G1 X73.685 Y76.558 E48.45754
G1 X73.691 Y76.552 E48.45782
G0 F1350 X74.116 Y76.08
G0 X74.233 Y75.963
G0 F7500 X74.516 Y76.246
G1 F1500 X75.025 Y75.793 E48.48049
G1 X75.583 Y75.404 E48.50311
G1 X76.183 Y75.082 E48.52576
G1 X76.817 Y74.833 E48.54841
G1 X77.476 Y74.66 E48.57107
G1 X78.15 Y74.566 E48.59371
G1 X78.61 Y74.547 E48.60902
G1 X81.02 Y74.544 E48.68918
G1 X81.032 Y74.544 E48.68958
G1 X90.619 Y74.552 E49.00844
G1 X91.123 Y74.436 E49.02564
G1 X92.09 Y74.355 E49.05792
G1 X107.56 Y74.357 E49.57245
G1 X108.239 Y74.397 E49.59508
G1 X108.91 Y74.516 E49.61774
G1 X109.561 Y74.714 E49.64037
G1 X109.639 Y74.748 E49.6432
G1 X128.997 Y74.747 E50.28705
G1 X129.571 Y74.622 E50.30659
G1 X130.469 Y74.552 E50.33655
G1 X141.38 Y74.546 E50.69945
G1 X142.06 Y74.586 E50.72211
G1 X142.73 Y74.705 E50.74474
G1 X143.382 Y74.901 E50.76738
G1 X144.006 Y75.173 E50.79002
G1 X144.594 Y75.516 E50.81267
G1 X145.138 Y75.926 E50.83532
G1 X145.484 Y76.245 E50.85098
G1 X145.601 Y76.362 E50.85648
G1 X146.054 Y76.871 E50.87914
G1 X146.443 Y77.429 E50.90177
G1 X146.765 Y78.029 E50.92441
G1 X147.014 Y78.663 E50.94707
G1 X147.187 Y79.322 E50.96973
G1 X147.281 Y79.996 E50.99236
G1 X147.3 Y80.463 E51.00791
G1 X147.3 Y84.602 E51.14557
G1 X147.273 Y85.057 E51.16073
G1 X147.281 Y85.113 E51.16261
G1 X147.3 Y85.58 E51.17816
G1 X147.3 Y141.44 E53.03607
G1 X147.26 Y142.12 E53.05873
G1 X147.141 Y142.79 E53.08136
